assets/icons/supported_selectable_icons/logos/financial_institutions/708.svg

<svg xmlns="http://www.w3.org/2000/svg" width="512" height="512" fill="none"><path fill="#fff" d="M0 0h512v512H0z"/><g clip-path="url(#a)"><path fill="#BAA05C" d="M105.943 261.753q1.082 2.098 2.884 3.401c1.202.868 2.596 1.519 4.23 1.929 1.61.41 3.292.628 5.022.628q1.767 0 3.749-.29a12.8 12.8 0 0 0 3.749-1.134 8.1 8.1 0 0 0 2.932-2.315c.769-.989 1.177-2.219 1.177-3.739 0-1.616-.504-2.943-1.538-3.932-1.033-1.013-2.379-1.833-4.061-2.508s-3.557-1.254-5.671-1.761a150 150 0 0 1-6.441-1.688 59 59 0 0 1-6.512-2.051c-2.115-.82-4.013-1.857-5.672-3.135-1.682-1.279-3.028-2.895-4.06-4.824-1.034-1.93-1.539-4.27-1.539-6.995 0-3.064.649-5.741 1.97-8.008 1.274-2.292 2.98-4.173 5.095-5.693s4.518-2.629 7.186-3.353a30.7 30.7 0 0 1 8.026-1.085c3.124 0 6.104.362 8.988 1.037q4.29 1.05 7.642 3.401c2.235 1.568 3.989 3.57 5.311 6.006 1.297 2.436 1.97 5.379 1.97 8.852h-12.712c-.12-1.784-.481-3.28-1.13-4.438-.649-1.182-1.49-2.098-2.547-2.774-1.057-.675-2.259-1.157-3.629-1.423-1.37-.289-2.86-.41-4.47-.41-1.057-.024-2.114.097-3.172.314a8.5 8.5 0 0 0-2.884 1.182 7.1 7.1 0 0 0-2.138 2.098c-.553.844-.841 1.906-.841 3.184 0 1.182.216 2.123.672 2.846.457.724 1.322 1.399 2.644 2.002 1.298.627 3.124 1.23 5.431 1.858 2.307.627 5.335 1.399 9.06 2.339 1.105.217 2.667.627 4.638 1.206 1.97.579 3.941 1.52 5.888 2.798 1.946 1.279 3.628 3.015 5.046 5.162s2.139 4.897 2.139 8.274c0 2.749-.529 5.282-1.586 7.622s-2.644 4.365-4.71 6.078c-2.091 1.713-4.686 3.039-7.762 3.98-3.1.941-6.681 1.423-10.742 1.423-3.293 0-6.465-.41-9.565-1.206-3.1-.82-5.816-2.074-8.195-3.811s-4.253-3.932-5.647-6.633c-1.394-2.653-2.067-5.837-2.019-9.528h12.713c0 2.002.36 3.715 1.081 5.114m41.022-15.269c.168-2.798.865-5.113 2.091-6.97 1.225-1.834 2.787-3.329 4.686-4.439 1.898-1.109 4.013-1.905 6.392-2.388a35.7 35.7 0 0 1 7.137-.723c2.163 0 4.374.144 6.609.458s4.254.917 6.104 1.809a12.2 12.2 0 0 1 4.518 3.739c1.177 1.592 1.754 3.714 1.754 6.344v22.552c0 1.954.12 3.835.337 5.62.216 1.785.6 3.136 1.177 4.029h-12.04a20 20 0 0 1-.552-2.051 16 16 0 0 1-.289-2.146c-1.898 1.953-4.133 3.328-6.68 4.1-2.572.772-5.191 1.182-7.859 1.182-2.066 0-3.989-.241-5.767-.748-1.779-.506-3.341-1.278-4.686-2.339-1.346-1.062-2.379-2.413-3.124-4.029s-1.13-3.545-1.13-5.789q0-3.69 1.298-6.078c.865-1.592 1.97-2.87 3.34-3.811s2.932-1.664 4.686-2.147a51 51 0 0 1 5.311-1.133 83 83 0 0 1 5.263-.676c1.73-.169 3.268-.41 4.59-.748 1.346-.337 2.403-.82 3.172-1.471s1.13-1.568 1.082-2.798c0-1.278-.217-2.315-.625-3.063a4.56 4.56 0 0 0-1.682-1.761 6.9 6.9 0 0 0-2.428-.844 19 19 0 0 0-2.955-.217c-2.331 0-4.182.506-5.528 1.519s-2.114 2.678-2.331 5.041h-11.871zm27.42 8.804c-.505.459-1.13.796-1.875 1.038-.745.241-1.562.458-2.427.627s-1.778.313-2.716.41c-.937.12-1.898.241-2.835.41-.889.169-1.779.386-2.644.675s-1.61.651-2.259 1.134a5.3 5.3 0 0 0-1.538 1.809c-.384.724-.576 1.64-.576 2.774q0 1.592.576 2.677a4.36 4.36 0 0 0 1.586 1.713c.673.41 1.442.723 2.331.892.89.169 1.803.241 2.764.241 2.331 0 4.157-.386 5.431-1.182 1.274-.771 2.235-1.712 2.836-2.798.601-1.085.985-2.194 1.129-3.304q.217-1.665.217-2.677zm14.611-14.158v-7.96h7.113v-3.377q0-5.789 3.605-9.479c2.403-2.461 6.008-3.691 10.862-3.691 1.057 0 2.115.048 3.172.121q1.586.108 3.1.217v8.9a36 36 0 0 0-4.35-.241c-1.61 0-2.763.386-3.46 1.134s-1.033 2.026-1.033 3.811v2.605h8.194v7.96h-8.219v35.409h-11.871V241.13zm41.79-7.984v8.056h.168a14.3 14.3 0 0 1 2.259-3.739 15.2 15.2 0 0 1 3.269-2.942 15 15 0 0 1 3.917-1.882 13.8 13.8 0 0 1 4.35-.675c.769 0 1.634.144 2.595.41v11.071a17 17 0 0 0-1.995-.289 25 25 0 0 0-2.259-.121c-2.162 0-4.013.362-5.527 1.086-1.514.723-2.715 1.712-3.629 2.966-.913 1.255-1.586 2.726-1.97 4.414-.385 1.689-.577 3.498-.577 5.452v19.537h-11.871v-43.344zm19.297 13.338c.169-2.798.866-5.113 2.091-6.97 1.226-1.834 2.788-3.329 4.686-4.439s4.014-1.905 6.393-2.388a36 36 0 0 1 7.137-.723c2.163 0 4.374.144 6.609.458s4.253.917 6.104 1.809a12.2 12.2 0 0 1 4.518 3.739c1.177 1.592 1.754 3.714 1.754 6.344v22.552c0 1.954.12 3.835.336 5.62s.601 3.136 1.178 4.029h-12.04a20 20 0 0 1-.553-2.051 16 16 0 0 1-.288-2.146c-1.899 1.953-4.133 3.328-6.681 4.1-2.571.772-5.191 1.182-7.858 1.182-2.067 0-3.989-.241-5.768-.748-1.778-.506-3.34-1.278-4.686-2.339-1.345-1.062-2.379-2.413-3.124-4.029s-1.129-3.545-1.129-5.789q0-3.69 1.297-6.078c.866-1.592 1.971-2.87 3.341-3.811s2.932-1.664 4.686-2.147a51 51 0 0 1 5.311-1.133 82 82 0 0 1 5.263-.676c1.73-.169 3.268-.41 4.59-.748 1.321-.337 2.403-.82 3.172-1.471s1.129-1.568 1.081-2.798c0-1.278-.216-2.315-.625-3.063a4.55 4.55 0 0 0-1.682-1.761 6.9 6.9 0 0 0-2.427-.844 19 19 0 0 0-2.956-.217c-2.331 0-4.181.506-5.527 1.519s-2.115 2.678-2.331 5.041h-11.872zm27.42 8.804c-.504.459-1.129.796-1.874 1.038-.745.241-1.562.458-2.427.627s-1.779.313-2.716.41c-.937.12-1.898.241-2.836.41a20 20 0 0 0-2.643.675c-.865.29-1.61.651-2.259 1.134a5.3 5.3 0 0 0-1.538 1.809c-.384.724-.577 1.64-.577 2.774q0 1.592.577 2.677c.385.724.913 1.303 1.586 1.713s1.442.723 2.331.892 1.802.241 2.764.241c2.331 0 4.157-.386 5.431-1.182 1.273-.771 2.235-1.712 2.836-2.798.6-1.085.985-2.194 1.129-3.304q.216-1.665.216-2.677z"/><path fill="#00003C" d="M302.953 267.903h.168c1.298 2.388 3.364 4.39 6.2 6.031 2.812 1.64 6.104 2.46 9.853 2.46 2.908 0 5.647-.555 8.195-1.664 2.547-1.11 4.758-2.63 6.632-4.607 1.875-1.978 3.341-4.294 4.422-6.971 1.058-2.678 1.61-5.596 1.61-8.756s-.528-6.078-1.61-8.756c-1.081-2.677-2.547-5.017-4.446-6.971-1.898-1.978-4.205-3.497-6.897-4.607-2.715-1.109-5.695-1.664-8.963-1.664-3.028 0-5.816.627-8.339 1.881q-3.785 1.882-6.633 5.283h-.168v-6.079h-6.945v62.256h6.921zm1.009-19.634a14.2 14.2 0 0 1 2.98-4.92 13.9 13.9 0 0 1 4.686-3.305c1.802-.796 3.845-1.206 6.104-1.206s4.302.41 6.104 1.206a14.4 14.4 0 0 1 4.686 3.305 14.2 14.2 0 0 1 2.98 4.92c.673 1.882 1.033 3.932 1.033 6.127s-.336 4.245-1.033 6.127a14.2 14.2 0 0 1-2.98 4.92 13.9 13.9 0 0 1-4.686 3.305c-1.802.796-3.845 1.206-6.104 1.206s-4.302-.41-6.104-1.206a14.4 14.4 0 0 1-4.686-3.305 14.2 14.2 0 0 1-2.98-4.92c-.673-1.882-1.033-3.932-1.033-6.127.024-2.195.36-4.245 1.033-6.127m90.142 35.216c-.769 2.075-1.682 3.763-2.764 5.017-1.057 1.255-2.739 1.882-4.998 1.882q-1.515 0-2.668-.145a9 9 0 0 1-2.235-.579l-.889 6.079a8.9 8.9 0 0 0 3.076.892c1.106.121 2.163.169 3.172.169 2.067 0 3.845-.289 5.311-.844 1.466-.579 2.692-1.375 3.749-2.412q1.55-1.557 2.668-3.763a63 63 0 0 0 2.186-4.872l20.139-51.426h-7.57l-12.376 32.829h-.168l-12.929-32.829h-8.099l17.279 42.115z"/><path fill="#00003C" d="M338.351 237.222c.433.458.841.917 1.25 1.423h23.719c2.307.362 4.181 1.303 5.599 2.533 1.802 1.544 2.716 3.835 2.716 6.898v1.255h-2.668c-2.547 0-5.359.12-8.411.361-3.052.242-5.912.845-8.555 1.785-2.644.965-4.854 2.412-6.633 4.39s-2.667 4.68-2.667 8.153c0 2.026.408 3.811 1.249 5.355s1.947 2.846 3.341 3.883 3.028 1.833 4.902 2.364 3.869.796 6.008.796c3.22 0 5.96-.699 8.243-2.05 2.163-1.303 3.917-2.967 5.239-4.969.36 3.932 3.676 7.019 7.666 7.019h14.034l.264-.724-2.571-6.271h-11.727a.75.75 0 0 1-.745-.748v-16.498h-.024v-2.05q0-8.937-4.11-13.315c-2.739-2.919-7.185-4.39-13.361-4.39-.457 0-.889.024-1.346.048l-28.405-.048c2.691 1.182 5.046 2.798 6.993 4.8m33.308 20.671a16.1 16.1 0 0 1-.89 4.873c-.528 1.519-1.297 2.846-2.331 3.98-1.009 1.133-2.259 2.05-3.797 2.725-1.514.7-3.268 1.038-5.311 1.038-2.619 0-4.806-.555-6.536-1.641-1.754-1.109-2.62-2.967-2.62-5.596 0-2.87 1.298-4.92 3.918-6.175q3.929-1.881 10.597-1.881h6.946v2.677z"/></g><defs><clipPath id="a"><path fill="#fff" d="M92.15 215.2h328.7v81.6H92.15z"/></clipPath></defs></svg>

<svg width="512" height="512" viewBox="0 0 512 512" fill="none" xmlns="http://www.w3.org/2000/svg">
<rect width="512" height="512" fill="white"/>
<g clip-path="url(#clip0_3_374)">
<path d="M105.943 261.753C106.664 263.152 107.626 264.285 108.827 265.154C110.029 266.022 111.423 266.673 113.057 267.083C114.667 267.493 116.349 267.711 118.079 267.711C119.257 267.711 120.506 267.614 121.828 267.421C123.174 267.228 124.424 266.842 125.577 266.287C126.755 265.733 127.716 264.961 128.509 263.972C129.278 262.983 129.686 261.753 129.686 260.233C129.686 258.617 129.182 257.29 128.148 256.301C127.115 255.288 125.769 254.468 124.087 253.793C122.405 253.118 120.53 252.539 118.416 252.032C116.301 251.526 114.162 250.971 111.975 250.344C109.74 249.789 107.578 249.089 105.463 248.293C103.348 247.473 101.45 246.436 99.7914 245.158C98.1092 243.879 96.7634 242.263 95.7301 240.334C94.6967 238.404 94.192 236.064 94.192 233.339C94.192 230.275 94.8409 227.598 96.1626 225.331C97.4363 223.039 99.1425 221.158 101.257 219.638C103.372 218.119 105.775 217.009 108.443 216.285C111.11 215.562 113.802 215.2 116.469 215.2C119.593 215.2 122.573 215.562 125.457 216.237C128.317 216.937 130.864 218.07 133.099 219.638C135.334 221.206 137.088 223.208 138.41 225.644C139.707 228.08 140.38 231.023 140.38 234.496H127.668C127.548 232.712 127.187 231.216 126.538 230.058C125.889 228.876 125.048 227.96 123.991 227.284C122.934 226.609 121.732 226.127 120.362 225.861C118.992 225.572 117.502 225.451 115.892 225.451C114.835 225.427 113.778 225.548 112.72 225.765C111.663 225.982 110.702 226.392 109.836 226.947C108.971 227.501 108.25 228.201 107.698 229.045C107.145 229.889 106.857 230.951 106.857 232.229C106.857 233.411 107.073 234.352 107.529 235.075C107.986 235.799 108.851 236.474 110.173 237.077C111.471 237.704 113.297 238.307 115.604 238.935C117.911 239.562 120.939 240.334 124.664 241.274C125.769 241.491 127.331 241.901 129.302 242.48C131.272 243.059 133.243 244 135.19 245.278C137.136 246.557 138.818 248.293 140.236 250.44C141.654 252.587 142.375 255.337 142.375 258.714C142.375 261.463 141.846 263.996 140.789 266.336C139.732 268.675 138.145 270.701 136.079 272.414C133.988 274.127 131.393 275.453 128.317 276.394C125.217 277.335 121.636 277.817 117.575 277.817C114.282 277.817 111.11 277.407 108.01 276.611C104.91 275.791 102.194 274.537 99.8154 272.8C97.4363 271.063 95.5618 268.868 94.168 266.167C92.7742 263.514 92.1013 260.33 92.1494 256.639H104.862C104.862 258.641 105.222 260.354 105.943 261.753Z" fill="#BAA05C"/>
<path d="M146.965 246.484C147.133 243.686 147.83 241.371 149.056 239.514C150.281 237.68 151.843 236.185 153.742 235.075C155.64 233.966 157.755 233.17 160.134 232.687C162.489 232.205 164.892 231.964 167.271 231.964C169.434 231.964 171.645 232.108 173.88 232.422C176.115 232.736 178.134 233.339 179.984 234.231C181.81 235.124 183.324 236.378 184.502 237.97C185.679 239.562 186.256 241.684 186.256 244.314V266.866C186.256 268.82 186.376 270.701 186.593 272.486C186.809 274.271 187.193 275.622 187.77 276.515H175.73C175.514 275.839 175.322 275.164 175.178 274.464C175.033 273.765 174.937 273.041 174.889 272.318C172.991 274.271 170.756 275.646 168.209 276.418C165.637 277.19 163.018 277.6 160.35 277.6C158.284 277.6 156.361 277.359 154.583 276.852C152.804 276.346 151.242 275.574 149.897 274.513C148.551 273.451 147.518 272.1 146.773 270.484C146.028 268.868 145.643 266.939 145.643 264.695C145.643 262.235 146.076 260.209 146.941 258.617C147.806 257.025 148.911 255.747 150.281 254.806C151.651 253.865 153.213 253.142 154.967 252.659C156.722 252.177 158.5 251.815 160.278 251.526C162.057 251.236 163.811 251.019 165.541 250.85C167.271 250.681 168.809 250.44 170.131 250.102C171.477 249.765 172.534 249.282 173.303 248.631C174.072 247.98 174.433 247.063 174.385 245.833C174.385 244.555 174.168 243.518 173.76 242.77C173.351 242.022 172.775 241.419 172.078 241.009C171.381 240.599 170.564 240.309 169.65 240.165C168.737 240.02 167.752 239.948 166.695 239.948C164.364 239.948 162.513 240.454 161.167 241.467C159.822 242.48 159.053 244.145 158.836 246.508H146.965V246.484ZM174.385 255.288C173.88 255.747 173.255 256.084 172.51 256.326C171.765 256.567 170.948 256.784 170.083 256.953C169.218 257.122 168.305 257.266 167.367 257.363C166.43 257.483 165.469 257.604 164.532 257.773C163.643 257.942 162.753 258.159 161.888 258.448C161.023 258.738 160.278 259.099 159.629 259.582C158.981 260.064 158.476 260.667 158.091 261.391C157.707 262.115 157.515 263.031 157.515 264.165C157.515 265.226 157.707 266.119 158.091 266.842C158.476 267.566 159.005 268.145 159.677 268.555C160.35 268.965 161.119 269.278 162.008 269.447C162.898 269.616 163.811 269.688 164.772 269.688C167.103 269.688 168.929 269.302 170.203 268.506C171.477 267.735 172.438 266.794 173.039 265.708C173.64 264.623 174.024 263.514 174.168 262.404C174.313 261.294 174.385 260.402 174.385 259.727V255.288Z" fill="#BAA05C"/>
<path d="M188.996 241.13V233.17H196.109V229.793C196.109 225.934 197.311 222.774 199.714 220.314C202.117 217.853 205.722 216.623 210.576 216.623C211.633 216.623 212.691 216.671 213.748 216.744C214.805 216.816 215.839 216.888 216.848 216.961V225.861C215.454 225.692 214.012 225.62 212.498 225.62C210.888 225.62 209.735 226.006 209.038 226.754C208.341 227.501 208.005 228.78 208.005 230.565V233.17H216.199V241.13H207.98V276.539H196.109V241.13H188.996Z" fill="#BAA05C"/>
<path d="M230.786 233.146V241.202H230.954C231.507 239.851 232.252 238.621 233.213 237.463C234.151 236.33 235.256 235.341 236.482 234.521C237.707 233.7 239.005 233.073 240.399 232.639C241.793 232.181 243.235 231.964 244.749 231.964C245.518 231.964 246.383 232.108 247.344 232.374V243.445C246.791 243.325 246.118 243.228 245.349 243.156C244.556 243.083 243.811 243.035 243.09 243.035C240.928 243.035 239.077 243.397 237.563 244.121C236.049 244.844 234.848 245.833 233.934 247.087C233.021 248.342 232.348 249.813 231.964 251.501C231.579 253.19 231.387 254.999 231.387 256.953V276.49H219.516V233.146H230.786Z" fill="#BAA05C"/>
<path d="M250.083 246.484C250.252 243.686 250.949 241.371 252.174 239.514C253.4 237.68 254.962 236.185 256.86 235.075C258.759 233.966 260.874 233.17 263.253 232.687C265.632 232.205 268.011 231.964 270.39 231.964C272.553 231.964 274.764 232.108 276.999 232.422C279.234 232.736 281.252 233.339 283.103 234.231C284.929 235.124 286.443 236.378 287.621 237.97C288.798 239.562 289.375 241.684 289.375 244.314V266.866C289.375 268.82 289.495 270.701 289.711 272.486C289.928 274.271 290.312 275.622 290.889 276.515H278.849C278.633 275.839 278.441 275.164 278.296 274.464C278.152 273.765 278.056 273.041 278.008 272.318C276.109 274.271 273.875 275.646 271.327 276.418C268.756 277.19 266.136 277.6 263.469 277.6C261.402 277.6 259.48 277.359 257.701 276.852C255.923 276.346 254.361 275.574 253.015 274.513C251.67 273.451 250.636 272.1 249.891 270.484C249.146 268.868 248.762 266.939 248.762 264.695C248.762 262.235 249.194 260.209 250.059 258.617C250.925 257.025 252.03 255.747 253.4 254.806C254.77 253.865 256.332 253.142 258.086 252.659C259.84 252.177 261.619 251.815 263.397 251.526C265.175 251.236 266.929 251.019 268.66 250.85C270.39 250.681 271.928 250.44 273.25 250.102C274.571 249.765 275.653 249.282 276.422 248.631C277.191 247.98 277.551 247.063 277.503 245.833C277.503 244.555 277.287 243.518 276.878 242.77C276.47 242.022 275.893 241.419 275.196 241.009C274.499 240.599 273.682 240.309 272.769 240.165C271.856 240.02 270.871 239.948 269.813 239.948C267.482 239.948 265.632 240.454 264.286 241.467C262.94 242.48 262.171 244.145 261.955 246.508H250.083V246.484ZM277.503 255.288C276.999 255.747 276.374 256.084 275.629 256.326C274.884 256.567 274.067 256.784 273.202 256.953C272.337 257.122 271.423 257.266 270.486 257.363C269.549 257.483 268.588 257.604 267.65 257.773C266.761 257.942 265.872 258.159 265.007 258.448C264.142 258.738 263.397 259.099 262.748 259.582C262.099 260.064 261.595 260.667 261.21 261.391C260.826 262.115 260.633 263.031 260.633 264.165C260.633 265.226 260.826 266.119 261.21 266.842C261.595 267.566 262.123 268.145 262.796 268.555C263.469 268.965 264.238 269.278 265.127 269.447C266.016 269.616 266.929 269.688 267.891 269.688C270.222 269.688 272.048 269.302 273.322 268.506C274.595 267.735 275.557 266.794 276.158 265.708C276.758 264.623 277.143 263.514 277.287 262.404C277.431 261.294 277.503 260.402 277.503 259.727V255.288Z" fill="#BAA05C"/>
<path d="M302.953 267.903H303.121C304.419 270.291 306.485 272.293 309.321 273.934C312.133 275.574 315.425 276.394 319.174 276.394C322.082 276.394 324.821 275.839 327.369 274.73C329.916 273.62 332.127 272.1 334.001 270.123C335.876 268.145 337.342 265.829 338.423 263.152C339.481 260.474 340.033 257.556 340.033 254.396C340.033 251.236 339.505 248.318 338.423 245.64C337.342 242.963 335.876 240.623 333.977 238.669C332.079 236.691 329.772 235.172 327.08 234.062C324.365 232.953 321.385 232.398 318.117 232.398C315.089 232.398 312.301 233.025 309.778 234.279C307.254 235.534 305.044 237.294 303.145 239.562H302.977V233.483H296.032V295.739H302.953V267.903ZM303.962 248.269C304.635 246.388 305.644 244.748 306.942 243.349C308.24 241.95 309.802 240.84 311.628 240.044C313.43 239.248 315.473 238.838 317.732 238.838C319.991 238.838 322.034 239.248 323.836 240.044C325.638 240.84 327.2 241.95 328.522 243.349C329.82 244.748 330.829 246.388 331.502 248.269C332.175 250.151 332.535 252.201 332.535 254.396C332.535 256.591 332.199 258.641 331.502 260.523C330.829 262.404 329.82 264.044 328.522 265.443C327.225 266.842 325.662 267.952 323.836 268.748C322.034 269.544 319.991 269.954 317.732 269.954C315.473 269.954 313.43 269.544 311.628 268.748C309.826 267.952 308.264 266.842 306.942 265.443C305.644 264.044 304.635 262.404 303.962 260.523C303.289 258.641 302.929 256.591 302.929 254.396C302.953 252.201 303.289 250.151 303.962 248.269Z" fill="#00003C"/>
<path d="M394.104 283.485C393.335 285.56 392.422 287.248 391.34 288.502C390.283 289.757 388.601 290.384 386.342 290.384C385.332 290.384 384.443 290.336 383.674 290.239C382.905 290.143 382.16 289.95 381.439 289.66L380.55 295.739C381.511 296.221 382.521 296.511 383.626 296.631C384.732 296.752 385.789 296.8 386.798 296.8C388.865 296.8 390.643 296.511 392.109 295.956C393.575 295.377 394.801 294.581 395.858 293.544C396.891 292.506 397.781 291.252 398.526 289.781C399.271 288.31 399.992 286.693 400.712 284.909L420.851 233.483H413.281L400.905 266.312H400.737L387.808 233.483H379.709L396.988 275.598L394.104 283.485Z" fill="#00003C"/>
<path d="M338.351 237.222C338.784 237.68 339.192 238.139 339.601 238.645H363.32C365.627 239.007 367.501 239.948 368.919 241.178C370.721 242.722 371.635 245.013 371.635 248.076V249.331H368.967C366.42 249.331 363.608 249.451 360.556 249.692C357.504 249.934 354.644 250.537 352.001 251.477C349.357 252.442 347.147 253.889 345.368 255.867C343.59 257.845 342.701 260.547 342.701 264.02C342.701 266.046 343.109 267.831 343.95 269.375C344.791 270.919 345.897 272.221 347.291 273.258C348.685 274.295 350.319 275.091 352.193 275.622C354.068 276.153 356.062 276.418 358.201 276.418C361.421 276.418 364.161 275.719 366.444 274.368C368.607 273.065 370.361 271.401 371.683 269.399C372.043 273.331 375.359 276.418 379.349 276.418H393.383L393.647 275.694L391.076 269.423H379.349C378.94 269.423 378.604 269.085 378.604 268.675V252.177H378.58V250.127C378.58 244.169 377.21 239.731 374.47 236.812C371.731 233.893 367.285 232.422 361.109 232.422C360.652 232.422 360.22 232.446 359.763 232.47L331.358 232.422C334.049 233.604 336.404 235.22 338.351 237.222ZM371.659 257.893C371.61 259.63 371.298 261.246 370.769 262.766C370.241 264.285 369.472 265.612 368.438 266.746C367.429 267.879 366.179 268.796 364.641 269.471C363.127 270.171 361.373 270.509 359.33 270.509C356.711 270.509 354.524 269.954 352.794 268.868C351.04 267.759 350.174 265.901 350.174 263.272C350.174 260.402 351.472 258.352 354.092 257.097C356.711 255.843 360.244 255.216 364.689 255.216H371.635V257.893H371.659Z" fill="#00003C"/>
</g>
<defs>
<clipPath id="clip0_3_374">
<rect width="328.701" height="81.6" fill="white" transform="translate(92.1494 215.2)"/>
</clipPath>
</defs>
</svg>
